static/assets/ship/Interface-Overlay-2.svg

<svg xmlns="http://www.w3.org/2000/svg" width="825" height="648"><g stroke="#28A8E0" stroke-width="2" stroke-miterlimit="10"><path fill="#231F20" d="M688 16H293l20 20h355z"/><path fill="#010101" d="M308 325h-3l20-20h343l25 20h99.5l20.5-20V36.25L788 11h-94.834L668 36H313l-25.333-25H38L13 36v269.25L33 325h275zm12-45l-25 25H55l-25-25V75l25-25h320l25 25v205h-80z"/></g><path opacity=".5" d="M33 325l-13-12.75V620l20 20h745l20-20V312.827L792.5 325z"/><path fill="#2075BC" d="M193.462 40h18.461v5h-18.461z"/><path fill="#29AAE1" d="M221.153 40h18.463v5h-18.463z"/><path fill="#5FCAE6" d="M248.847 40h18.461v5h-18.461z"/><path fill="#B0E0E9" d="M276.538 40H295v5h-18.462z"/><path fill="#2075BC" d="M165.77 40h18.461v5H165.77z"/><path fill="#29AAE1" d="M138.077 40h18.461v5h-18.461z"/><path fill="#5FCAE6" d="M110.385 40h18.462v5h-18.462z"/><path fill="#B0E0E9" d="M82.692 40h18.461v5H82.692z"/><path fill="#FFF" d="M55 40h18.462v5H55z"/><path fill="#2075BC" d="M193.461 310h18.461v5h-18.461z"/><path fill="#29AAE1" d="M221.154 310h18.462v5h-18.462z"/><path fill="#5FCAE6" d="M248.846 310h18.461v5h-18.461z"/><path fill="#B0E0E9" d="M276.539 310H295v5h-18.461z"/><path fill="#2075BC" d="M165.769 310h18.462v5h-18.462z"/><path fill="#29AAE1" d="M138.077 310h18.461v5h-18.461z"/><path fill="#5FCAE6" d="M110.385 310h18.461v5h-18.461z"/><path fill="#B0E0E9" d="M82.692 310h18.461v5H82.692z"/><path fill="#FFF" d="M55 310h18.461v5H55z"/><path fill="none" stroke="#28A8E0" stroke-width="2" stroke-miterlimit="10" d="M33 325l-13-12.75V620l20 20h745l20-20V312.827L792.5 325z"/><path fill="#27AAE1" d="M391.968 285.213v12.675l6.337-6.338zM379.573 285.213v12.675l6.338-6.338zM367.181 285.213v12.675l6.337-6.338zM354.786 285.213v12.675l6.339-6.338zM342.394 285.213v12.675l6.337-6.338zM330 285.213v12.675l6.337-6.338z"/></svg>

<?xml version="1.0" encoding="UTF-8" standalone="no"?>
<svg
   width="825"
   height="648"
   version="1.1"
   id="svg234"
   sodipodi:docname="Interface-Overlay-2.svg"
   inkscape:version="1.1.1 (3bf5ae0d25, 2021-09-20)"
   xmlns:inkscape="http://www.inkscape.org/namespaces/inkscape"
   xmlns:sodipodi="http://sodipodi.sourceforge.net/DTD/sodipodi-0.dtd"
   xmlns="http://www.w3.org/2000/svg"
   xmlns:svg="http://www.w3.org/2000/svg">
  <defs
     id="defs238" />
  <sodipodi:namedview
     id="namedview236"
     pagecolor="#ffffff"
     bordercolor="#666666"
     borderopacity="1.0"
     inkscape:pageshadow="2"
     inkscape:pageopacity="0.0"
     inkscape:pagecheckerboard="0"
     showgrid="false"
     inkscape:zoom="20.518518"
     inkscape:cx="813.85018"
     inkscape:cy="317.76173"
     inkscape:window-width="1920"
     inkscape:window-height="1168"
     inkscape:window-x="0"
     inkscape:window-y="0"
     inkscape:window-maximized="1"
     inkscape:current-layer="svg234" />
  <g
     stroke="#28A8E0"
     stroke-width="2"
     stroke-miterlimit="10"
     id="g190">
    <path
       fill="#231F20"
       d="M688 16H293l20 20h355z"
       id="path186" />
    <path
       fill="#010101"
       d="m 792.5,325 v 0 L 813,305 V 36.25 L 788,11 H 693.166 L 668,36 H 313 L 287.667,11 H 38 L 13,36 V 305.25 L 33,325 h 275 -3 l 20,-20 H 813 M 320,280 295,305 H 55 L 30,280 V 75 L 55,50 h 320 l 25,25 v 205 z"
       id="path188"
       sodipodi:nodetypes="ccccccccccccccccccccccccccc" />
  </g>
  <path
     opacity=".5"
     d="M33 325l-13-12.75V620l20 20h745l20-20V312.827L792.5 325z"
     id="path192" />
  <path
     fill="#2075BC"
     d="M193.462 40h18.461v5h-18.461z"
     id="path194" />
  <path
     fill="#29AAE1"
     d="M221.153 40h18.463v5h-18.463z"
     id="path196" />
  <path
     fill="#5FCAE6"
     d="M248.847 40h18.461v5h-18.461z"
     id="path198" />
  <path
     fill="#B0E0E9"
     d="M276.538 40H295v5h-18.462z"
     id="path200" />
  <path
     fill="#2075BC"
     d="M165.77 40h18.461v5H165.77z"
     id="path202" />
  <path
     fill="#29AAE1"
     d="M138.077 40h18.461v5h-18.461z"
     id="path204" />
  <path
     fill="#5FCAE6"
     d="M110.385 40h18.462v5h-18.462z"
     id="path206" />
  <path
     fill="#B0E0E9"
     d="M82.692 40h18.461v5H82.692z"
     id="path208" />
  <path
     fill="#FFF"
     d="M55 40h18.462v5H55z"
     id="path210" />
  <path
     fill="#2075BC"
     d="M193.461 310h18.461v5h-18.461z"
     id="path212" />
  <path
     fill="#29AAE1"
     d="M221.154 310h18.462v5h-18.462z"
     id="path214" />
  <path
     fill="#5FCAE6"
     d="M248.846 310h18.461v5h-18.461z"
     id="path216" />
  <path
     fill="#B0E0E9"
     d="M276.539 310H295v5h-18.461z"
     id="path218" />
  <path
     fill="#2075BC"
     d="M165.769 310h18.462v5h-18.462z"
     id="path220" />
  <path
     fill="#29AAE1"
     d="M138.077 310h18.461v5h-18.461z"
     id="path222" />
  <path
     fill="#5FCAE6"
     d="M110.385 310h18.461v5h-18.461z"
     id="path224" />
  <path
     fill="#B0E0E9"
     d="M82.692 310h18.461v5H82.692z"
     id="path226" />
  <path
     fill="#FFF"
     d="M55 310h18.461v5H55z"
     id="path228" />
  <path
     fill="none"
     stroke="#28A8E0"
     stroke-width="2"
     stroke-miterlimit="10"
     d="M33 325l-13-12.75V620l20 20h745l20-20V312.827L792.5 325z"
     id="path230" />
  <path
     fill="#27AAE1"
     d="M391.968 285.213v12.675l6.337-6.338zM379.573 285.213v12.675l6.338-6.338zM367.181 285.213v12.675l6.337-6.338zM354.786 285.213v12.675l6.339-6.338zM342.394 285.213v12.675l6.337-6.338zM330 285.213v12.675l6.337-6.338z"
     id="path232" />
</svg>
